packages/kaspersky-hexa-ui-icons/src/iconsSVGs/16/IOS3.svg

<svg width="16" height="16" viewBox="0 0 16 16" fill="none" xmlns="http://www.w3.org/2000/svg">
<path d="M11.2873 7.95458C11.3886 8.03622 11.4728 8.13693 11.5402 8.25669C11.6072 8.37709 11.6409 8.52671 11.6409 8.70557C11.6409 8.88505 11.6143 9.03945 11.5613 9.16874C11.5083 9.29835 11.4342 9.40636 11.3387 9.49309C11.2429 9.57918 11.1271 9.64303 10.9915 9.68465C10.8558 9.72626 10.7061 9.74723 10.5435 9.74723C10.3292 9.74723 10.1406 9.72499 9.97738 9.67988C9.81479 9.63509 9.69476 9.59061 9.6176 9.54582L9.80622 8.98385C9.83745 9.00355 9.87817 9.0242 9.92808 9.04643C9.9783 9.06931 10.0346 9.08964 10.0977 9.10902C10.1605 9.12808 10.2269 9.14396 10.2967 9.15667C10.3669 9.16969 10.4391 9.17636 10.5132 9.17636C10.6877 9.17636 10.8212 9.14333 10.9143 9.07788C11.0071 9.01213 11.0536 8.91206 11.0536 8.77768C11.0536 8.67507 11.02 8.59216 10.9529 8.52799C10.8855 8.46381 10.8013 8.406 10.7 8.35295C10.5986 8.29989 10.4884 8.24589 10.3699 8.18998C10.2511 8.13375 10.1412 8.06481 10.0398 7.98349C9.93849 7.90184 9.85398 7.80019 9.78662 7.67883C9.71987 7.55716 9.68588 7.40182 9.68588 7.2128C9.68588 7.04952 9.71038 6.90815 9.75906 6.78839C9.80775 6.66799 9.87664 6.56824 9.96666 6.4885C10.057 6.40844 10.1632 6.34904 10.286 6.3106C10.4091 6.27216 10.5463 6.25278 10.6979 6.25278C10.8721 6.25278 11.0362 6.26962 11.1905 6.30361C11.3448 6.33697 11.4722 6.38557 11.572 6.44974L11.388 7.00187C11.3252 6.95707 11.2306 6.91609 11.1051 6.87924C10.9792 6.84239 10.8436 6.82397 10.6979 6.82397C10.5607 6.82397 10.4557 6.85478 10.3828 6.91514C10.3096 6.97613 10.2732 7.05778 10.2732 7.16039C10.2732 7.25632 10.3071 7.33606 10.3739 7.40023C10.4413 7.4644 10.5258 7.52286 10.6271 7.5775C10.7285 7.63214 10.8384 7.68837 10.9572 7.74586C11.0757 7.80336 11.1859 7.87262 11.2873 7.95458Z" fill="black"/>
<path fill-rule="evenodd" clip-rule="evenodd" d="M8.64463 8.00001C8.64463 7.73761 8.61891 7.49935 8.56747 7.2846C8.51633 7.0708 8.43795 6.88655 8.33262 6.73311C8.22668 6.57936 8.0944 6.46086 7.93457 6.37763C7.77473 6.2944 7.58765 6.25278 7.37393 6.25278C6.96608 6.25278 6.65223 6.40431 6.43269 6.70643C6.21315 7.00885 6.10323 7.44026 6.10323 8.00001C6.10323 8.26272 6.12895 8.50098 6.18039 8.7151C6.23183 8.92953 6.30899 9.11346 6.4134 9.26722C6.51751 9.42098 6.64948 9.53947 6.809 9.6227C6.96883 9.70561 7.15714 9.74723 7.37393 9.74723C7.77902 9.74723 8.09226 9.59602 8.31302 9.2939C8.53409 8.99148 8.64463 8.56007 8.64463 8.00001ZM7.99244 7.54414C8.01632 7.68487 8.02887 7.83704 8.02887 8.00001C8.02887 8.40949 7.97162 8.70557 7.85771 8.88823C7.7432 9.07058 7.58214 9.16175 7.37393 9.16175C7.25972 9.16175 7.16143 9.13316 7.07845 9.07534C6.99609 9.01784 6.92811 8.93779 6.87514 8.83518C6.82247 8.73289 6.78328 8.61058 6.75756 8.46794C6.73215 8.32594 6.71898 8.16965 6.71898 8.00001C6.71898 7.60037 6.77624 7.30652 6.89076 7.11941C7.00466 6.93229 7.16572 6.83858 7.37393 6.83858C7.49396 6.83858 7.595 6.86844 7.67767 6.92721C7.76065 6.9863 7.8274 7.0689 7.87853 7.17468C7.92997 7.28015 7.96794 7.40309 7.99244 7.54414Z" fill="black"/>
<path d="M4.43841 6.34396C4.49138 6.28296 4.56456 6.25278 4.65795 6.25278C4.75134 6.25278 4.82666 6.28296 4.88484 6.34396C4.9424 6.40463 4.97149 6.47833 4.97149 6.56411C4.97149 6.6502 4.9424 6.72199 4.88484 6.77981C4.82666 6.83731 4.75134 6.86622 4.65795 6.86622C4.56456 6.86622 4.49138 6.83731 4.43841 6.77981C4.38544 6.72199 4.35911 6.6502 4.35911 6.56411C4.35911 6.47833 4.38544 6.40463 4.43841 6.34396Z" fill="black"/>
<path d="M4.97959 9.74723H4.36721V7.17468H4.97959V9.74723Z" fill="black"/>
<path fill-rule="evenodd" clip-rule="evenodd" d="M4.6666 2.0166C3.20305 2.0166 2.0166 3.20305 2.0166 4.6666V11.3333C2.0166 12.7968 3.20305 13.9833 4.6666 13.9833H11.3333C12.7968 13.9833 13.9833 12.7968 13.9833 11.3333V4.6666C13.9833 3.20305 12.7968 2.0166 11.3333 2.0166H4.6666ZM3.3166 4.6666C3.3166 3.92102 3.92102 3.3166 4.6666 3.3166H11.3333C12.0789 3.3166 12.6833 3.92102 12.6833 4.6666V11.3333C12.6833 12.0789 12.0789 12.6833 11.3333 12.6833H4.6666C3.92102 12.6833 3.3166 12.0789 3.3166 11.3333V4.6666Z" fill="black"/>
</svg>

<svg xmlns="http://www.w3.org/2000/svg" width="16" height="16" fill="none" viewBox="0 0 16 16"><path fill="#000" d="M11.2873 7.9546q.1519.1224.2529.302.1006.1807.1007.449 0 .2692-.0796.4631-.0794.1944-.2226.3244-.1438.1291-.3472.1915c-.1357.0417-.2854.0626-.448.0626q-.3214.0002-.5661-.0673-.244-.067-.3598-.134l.1886-.562a1 1 0 0 0 .1219.0625 1.4 1.4 0 0 0 .1696.0626q.0942.0286.199.0477.1053.0196.2165.0197.2616-.0001.4011-.0985.1393-.0986.1393-.3002c0-.1026-.0336-.1855-.1007-.2497-.0674-.0642-.1516-.122-.2529-.175a9 9 0 0 0-.3301-.163 1.66 1.66 0 0 1-.3301-.2065q-.152-.1226-.2532-.3047c-.0667-.1216-.1007-.277-.1007-.466q0-.2448.0732-.4244c.0487-.1204.1175-.2202.2076-.2999q.1353-.1202.3193-.1779.1846-.0577.4119-.0578.2612-.0001.4926.0508.2316.05.3815.1461l-.184.5522c-.0628-.0448-.1574-.0858-.2829-.1227q-.1887-.0552-.4072-.0552c-.1372 0-.2422.0308-.3151.0911q-.1097.0914-.1096.2453c0 .096.0339.1757.1007.2398.0674.0642.1519.1227.2532.1773q.152.082.3301.1684a1.7 1.7 0 0 1 .3301.2087"/><path fill="#000" fill-rule="evenodd" d="M8.6446 8q0-.3935-.0771-.7154c-.0512-.2138-.1296-.398-.2349-.5515-.106-.1537-.2382-.2722-.398-.3555q-.24-.1248-.5607-.1248c-.4078 0-.7217.1515-.9412.4536-.2195.3024-.3295.7339-.3295 1.2936q0 .394.0772.7151c.0514.2144.1286.3984.233.5521q.1562.2307.3956.3555.2397.1245.565.1245c.405 0 .7183-.1512.939-.4533Q8.6446 8.8402 8.6446 8m-.6522-.4559c.024.1408.0365.293.0365.456q-.0002.6141-.1712.8881-.1716.2736-.4838.2736-.1712.0002-.2954-.0865-.1237-.0862-.2034-.2401-.079-.1534-.1175-.3673Q6.7192 8.2547 6.719 8c0-.3996.0572-.6935.1718-.8806q.1709-.2807.4831-.2808.1799.0002.3038.0886.1243.0887.2008.2475.0772.158.114.3694" clip-rule="evenodd"/><path fill="#000" d="M4.438 6.344q.08-.091.22-.091c.093 0 .169.03.227.091s.087.134.087.22q0 .129-.087.216-.087.086-.227.086t-.219-.086q-.079-.087-.079-.216c0-.086.026-.159.079-.22m.541 3.403h-.612V7.175h.612z"/><path fill="#000" fill-rule="evenodd" d="M4.6666 2.0166c-1.4635 0-2.65 1.1865-2.65 2.65v6.6667c0 1.4635 1.1865 2.65 2.65 2.65h6.6667c1.4635 0 2.65-1.1865 2.65-2.65V4.6666c0-1.4635-1.1865-2.65-2.65-2.65zm-1.35 2.65c0-.7456.6044-1.35 1.35-1.35h6.6667c.7456 0 1.35.6044 1.35 1.35v6.6667c0 .7456-.6044 1.35-1.35 1.35H4.6666c-.7456 0-1.35-.6044-1.35-1.35z" clip-rule="evenodd"/></svg>
